X:1
L:1/8
M:2/2
K:G
 B>A | G<E E>G D>ED>B, | G/G/G c>B A2 B>A | G<EE>G D>ED>B, | D/D/D E>F G2 :: B/c/ | 
 d/ B3/2 B>g d2 e/d/c/B/ | d/ B3/2 B>g e2 ge | d/ B3/2 B>g d2 e/d/c/B/ | c>AB>G E2 B>c | 
 d<BB>g d2 e/d/c/B/ | d/ B3/2 B>g e3 f | (3gfe (3def (3gfe (3dcB | c>AB>G E3 :|
